X: 1
T: Vals efter Timas Anders
O: Ore, Sweden
R: waltz
Z: 2021 John Chambers <jc:trillian.mit.edu>
S: BlueRoseMusic.org tune 2259
M: 3/4
L: 1/8
K: Ddor
z(a2- |\
 ag) bg a2 | (ef) ge f2 | ed g2 g2 | (ga) (fe) fg |\
(ag) bg a2 | (ef) ge f2 | ed a2 ^ce | d3 :|
|: (e f)a |\
e3 (d ^cd) | A3 (B A^G) | (AB) (^cd) ef | (d^c) (de) fa |\
e3 (d ^cd) | A3 (B A^G) | (AB) (^cd) ef | d3 :|
